!!!OTL: Jungbrunnen.
!!!ARE: Europa, Mitteleuropa, Deutschland
!!!SCT: A0133A
!!!TXL: @@GMH
!!!YEM: Copyright 1995, estate of Helmut Schaffrath.
**kern	**text
*M4/1	*
*met(c|)	*
*clefC3	*
*k[]	*
*d:dor	*
!LO:TX:a:t=dor.	!
{1r	.
1c	Die
=1	=1
1d	brün-
1e	-lein
1f	die
1d	do
=2	=2
!LO:TX:a:t=..	!
0c	flie-
1.d}	-ßen,
{2e	die
=3	=3
1f	ſol
1g	man
0e	trin-
=4	=4
0d	-cken,
1r}	.
{1c	Vnd
=5	=5
1d	wer
1e	ein
1f	ſte-
1d	-ten
=6	=6
!LO:TX:a:t=..	!
0c	buelen
1.d}	hat,
{2e	der
=7	=7
1f	ſol
1g	im
0e	win-
=8	=8
0d	-cken,
1r}	.
{1d	vnd
=9	=9
1a	win-
1a	-cken
1a	mit
1g	den
=10	=10
0g	au-
1a}	-gen
{1g	vnd
=11	=11
1f	tret-
1e	-ten
!LO:TX:a:t=*	!
1d	auff
1d	ein
=12	=12
0A	fues,
1r}	.
{1A	es
=13	=13
1d	iſt
1c	ein
1d	har-
1e	-ter
=14	=14
0f	or-
1e}	-den,
{1d	der
=15	=15
1.f	ſei-
2e	-nen
1d	bue-
1a	-len
=16	=16
0g	mei-
0e	-den
=17	=17
0d\ll}	mues.
==	==
!!!GTL: Liebeslieder
!!!AGN: Romanze, Ballade, Lied
!! Joh. Ott 1534 No. 44
!!!ONB: ESAC (Essen Associative Code) Database: ALTDEU
!!!AMT: simple quadruple
!!!AIN: vox
!!!EED: Helmut Schaffrath
!!!EEV: 1.0
!!!RDF**kern: l = terminal long
!!!AMD: Dorian
!!!URL-scan:  https://rosdok.uni-rostock.de/mcrviewer/recordIdentifier/rosdok_ppn738218359/iview2/phys_0302.iview2?x=-2231.2783251231526&y=608.2837438366842&scale=0.2314709236031927&rotation=0&layout=singlePageLayout&logicalDiv=log_0009
!!!ENC: Anna Maria Matuszewska
!!!EEV: 2024/26/02
*-	*-
